X: 11967
T: End Of The Road, The
R: waltz
M: 3/4
K: Dmajor
FG|:A2 A2>B2|A2 G2 F2|E2 EF ED|B4 AF|
E2>D2 EF|G2 F2 G2|B2 A2>d2|A4 A2|
B2 B2>A2|Bc d2 A2|f2 e2 dc|B4 AF|
E2 EF ED|B2 A2 AB|d2 d2>e2|d4 FG:|
|:Ad e2 f2|Ad g2 f2|B2 Bd BA|F4 FG|
Ad e2 f2|Ad g2 f2|ed B2 d2|e4 dB|
Ad e2 f2|Ad g2 f2|B2 Bd BA|E4 FD|
E2 EF ED|B2 A2 AB|d2 d2>e2|d4 FG:|

